X: 33
T: Marchon
M: 6/4
L: 1/8
V:1
K:C clef=treble-8 octave=1 
F,12| E,12| F,12| G,12|
A,12| A,12| D,12| F,12|
G,12| E,12| D,12| F,12|
E,12| F,12| G,12| A,12|
A,12| D,12| F,12| E,12|
D,12| A,12| B,12| C12|
B,12| A,12| A,12| B,12|
C12| B,12| A,12| A,12|
G,12| A,12| B,12| C12|
A,12| C12| B,12| A,12|
F,12| F,12| F,12|

